X:1
T:Beautiful
C:Christina Aguilera
Z:All Rights Reserved
L:1/8
M:4/4
K:Eb
V:1 treble nm=" " snm=" "
V:1
"Eb" z8 |"Eb7/Db" z8 |"Cm7" z8 |"Abm6/Cb" z8 |"Eb" z8 |"Eb7/Db" z8 |"Cm7" z8 |"Abm6/Cb" z8 || %8
w: ||||||||
w: ||||||||
w: ||||||||
"Eb" z2 EC/E/- E2- (3EEF |"Eb7/Db" A>G E2- EE- (3EEF |"Cm7" C4- CE EF/_C/- |"Abm6/Cb" _C3 z z4 | %12
w: Ev'- ry- day _ _ is so|won- der- ful, _ and * sud- den-|ly, * it's hard to breathe.|_|
w: ||||
w: ||||
"Eb" z2 EC/E/- E2- (3EEF |"Eb7/Db" A>G E2- EE EF/C/- |"Cm7" C4- DE EF/_C/- |"Abm6/Cb" _C4 z4S || %16
w: Now and then * * I get|in- se- cure _ from all the pain|_ _ I'm so a- shamed.|_|
w: ||||
w: ||||
"Ab" z2 E/FG/- G/F/(F E>)C |"Fm7" EC/G/- GF/E/- E4 |"Eb" G2 G2"Eb/Db" F(G B)E- |"Cm7" E4 z4 | %20
w: I am beau- * ti- ful * no|mat- ter what _ they say _|Words can't bring me _ down.|_|
w: You are beau- * ti- ful _ no|mat- ter what _ they say _|Words can't bring you _ down.|_|
w: ||||
"Ab"z>C E/F_G/- G/F/(F E>)E |"Fm7" EC/G/- G/F/E- E2>B,2 |"Eb" G2 G2"Eb/Db" F(G B)E- |"Cm7" E8 | %24
w: * I am beau- _ ti- ful * in|ev'- ry sin- _ gle way _ Yes,|wiords can't bring me _ down|_|
w: 'Cause you are beau- * ti- ful _ in|ev'- ry sin- * gle way. _ Yes,|words can't bring me _ down|_|
w: ||||
"Fm7"z2z/C/ E/F/ _G/F/{E}F- F>E"^To Coda"O ||"Eb" E8 |"Eb7/Db" z8 |"Cm7" z8 |"Abm6/Cb" z8 || %29
w: So don't- you y me * * to-|day.||||
w: So don't you bring me * * to-|day.||||
w: * * * bring * * * *|||||
"Eb"z>C EC/E/- E2- (3EEF |"^Eb7/D7" A>G E4 EF |"Cm7" C4- C>E E(E/F/-) |"Abm6/Cb" F_C- C6 | %33
w: To all your friends, _ _ you're de-|li- ri- ous So con-|sumed _ in all your *|* doom _|
w: ||||
w: ||||
"Eb" z2 EC/E/- E2 (3EEF |"Eb7/Db" A>G (E<F)zz/E/ EF/C/- |"Cm7" C4- CE/D/ E/D/E/F/- | %36
w: Try- ing hard _ to fill the|emp- ti- ness. _ The pie- ces gone|_ _ left the puz- zle un- _|
w: |||
w: |||
"Abm6/Cb" F_C- C/C/E/F/ _G/F/({E}F"^D.S. al Coda" E2) ||"^Coda"O"Eb"z4z2z>E | %38
w: _ done, * is that the way it * *|No|
w: ||
w: ||
"Eb/Db" cB/B/ G<(B- B/_G/F/E<)zE/ |"Cm7" FG/B/- BE/F/- F2 z2 | %40
w: mat- ter what we do _ _ _ _ No|mat ter what * we * say|
w: ||
w: ||
"Abm6/Cb"(3:2:4z(e_d/B/ A/_G/E/G/) (3(d{c}d{c}d d<B) |"Eb"z4z2z>B | %42
w: Yeah _ _ _ _ _ _ Oh, _ _ _ _|And|
w: ||
w: ||
"Eb/Db" _gf/e/- e/c/e/{B}c/- c2 z2 |"Cm7"z>B Bc/e/- e<cze |"Am6/Cb" (B<c)z>(_g- g/f/e/f/ e2) || %45
w: ev'- ry- where * we go _ _|the Sun will al- ways * al-|ways * shine _ _ _ _ _|
w: |||
w: |||
"Ab"z>C E/FG/- G/F/(F E>)C |"Fm7" EC/G/- GB/E/- E2>B,2 |"Eb" G2 G2"Eb/Db" c(BG)A- | %48
w: 'Cause we are beau- _ ti- ful _ no|mat- ter what _ they say _ Yes|words won't- bring us _ down|
w: |||
w: |||
"Cm7" A/G/E- E6 |"Ab" z2 E/F_G/- G/F/(F E>)E |"Fm7" EC/G/- GB/E/- E2>B,2 |"Eb" G2 c2"Eb/Db"zA GA- | %52
w: _ _ _ _|We are beau- _ ti- ful _ in|ev'- ry sin- _ gle way _ Yes|words can't bring us down|
w: ||||
w: ||||
"Cm7" A/G/E- E6 |"Fm7"z2z/C/ E/F/ _G/F/{E}F- F>E ||"Eb" E6 z2 |"Eb7/Db" z8 |"Cm7" z8 | %57
w: _ _ _ _|So don't- you bring me * * to-|day|||
w: |||||
w: |||||
"Abm6/Cb"z2z/_C/ E/F/ _G/F/E- EB |"Eb" B8 |"Eb7/Db" z8 |"Cm7" z8 | %61
w: So don't- you bring me down * to-|day.|||
w: ||||
w: ||||
"Abm6/Cb" z2 E/F/_G/F/{E} F3/2 !fermata!z/ (G/4F/4E)_C/ |"Eb" B,8 |] %63
w: Don't you bring me * mm _ hmm to-|day|
w: ||
w: ||

